packages/bezier-icons/icons/call.svg

<svg width="24" height="24" viewBox="0 0 24 24" fill="none" xmlns="http://www.w3.org/2000/svg">
<path fill-rule="evenodd" clip-rule="evenodd" d="M6.55271 4.53075C6.17285 4.60505 5.75466 4.81443 5.40708 5.16202C4.92656 5.64253 4.50976 6.77497 4.90901 8.55345C5.30144 10.3015 6.47328 12.5614 8.95798 15.0461C11.4427 17.5308 13.7026 18.7027 15.4507 19.0951C17.2292 19.4944 18.3616 19.0776 18.8421 18.597C19.1897 18.2495 19.3991 17.8313 19.4734 17.4514C19.5492 17.0636 19.4744 16.7919 19.3733 16.6462L19.368 16.6385L19.3628 16.6307C19.1946 16.3786 18.8075 15.9831 18.3057 15.6512C17.7952 15.3136 17.3132 15.1392 16.9667 15.1392C16.7193 15.1392 16.4029 15.3057 15.907 15.7191C15.8495 15.767 15.7832 15.8238 15.7124 15.8845C15.5475 16.0258 15.3583 16.1879 15.2001 16.3065C15.0057 16.4522 14.5769 16.7636 14.0416 16.753C13.487 16.7421 12.7489 16.4751 12.0433 16.1025C11.2959 15.7078 10.4488 15.1227 9.66509 14.339C8.88142 13.5554 8.29631 12.7082 7.90161 11.9608C7.52904 11.2552 7.26205 10.5171 7.25107 9.96247C7.24047 9.42718 7.55192 8.99844 7.69761 8.80406C7.81625 8.64578 7.97829 8.45667 8.11964 8.29172C8.18028 8.22095 8.23711 8.15462 8.28507 8.09708C8.69841 7.60122 8.86493 7.28484 8.86493 7.03739C8.86493 6.69094 8.69056 6.20894 8.35294 5.69844C8.02105 5.19662 7.62556 4.80947 7.37336 4.64133L7.3656 4.63616L7.35794 4.63084C7.21219 4.5297 6.94056 4.45488 6.55271 4.53075ZM8.49031 2.98228C7.79366 2.50264 6.939 2.41728 6.16877 2.56794C5.38765 2.72074 4.61371 3.12696 3.99286 3.7478C2.85933 4.88133 2.4691 6.81559 2.95758 8.99153C3.45288 11.1979 4.86351 13.7801 7.54377 16.4604C10.224 19.1406 12.8063 20.5512 15.0126 21.0465C17.1885 21.535 19.1228 21.1448 20.2563 20.0113C20.8772 19.3904 21.2834 18.6165 21.4362 17.8353C21.5868 17.0651 21.5015 16.2105 21.0219 15.5139C20.6728 14.9934 20.0754 14.4238 19.4089 13.983C18.748 13.5459 17.8742 13.1392 16.9667 13.1392C15.923 13.1392 15.1025 13.786 14.6265 14.1828C14.5124 14.2778 14.4192 14.358 14.3376 14.4282C14.2085 14.5392 14.1084 14.6253 14.0005 14.7061C13.9871 14.7162 13.9748 14.7252 13.9637 14.7331C13.9029 14.7192 13.8267 14.698 13.7357 14.6674C13.5289 14.598 13.2698 14.4884 12.9772 14.3339C12.3915 14.0247 11.7098 13.5554 11.0793 12.9248C10.4488 12.2943 9.97946 11.6126 9.67018 11.0269C9.51571 10.7344 9.40617 10.4752 9.33672 10.2684C9.30617 10.1774 9.28494 10.1012 9.27102 10.0405C9.27895 10.0293 9.2879 10.017 9.29798 10.0036C9.37878 9.89577 9.46491 9.79562 9.57589 9.66657C9.64611 9.58492 9.72628 9.4917 9.82134 9.37766C10.2182 8.90161 10.8649 8.08117 10.8649 7.03739C10.8649 6.12992 10.4582 5.25612 10.0211 4.59518C9.58038 3.92877 9.01082 3.33137 8.49031 2.98228ZM9.21524 10.1283C9.21519 10.1283 9.21575 10.127 9.21711 10.1244C9.21598 10.127 9.2153 10.1283 9.21524 10.1283ZM13.8758 14.7889C13.8758 14.7888 13.8772 14.7881 13.8797 14.787C13.8771 14.7884 13.8758 14.7889 13.8758 14.7889Z" fill="#313234"/>
</svg>

<svg xmlns="http://www.w3.org/2000/svg" width="24" height="24" fill="none" viewBox="0 0 24 24"><path fill="#313234" fill-rule="evenodd" d="M6.553 4.53c-.38.075-.798.284-1.146.632-.48.48-.897 1.613-.498 3.391.392 1.749 1.564 4.008 4.049 6.493s4.745 3.657 6.493 4.05c1.778.398 2.91-.018 3.391-.499.348-.348.557-.766.631-1.146.076-.387.001-.66-.1-.805l-.005-.008-.005-.007c-.168-.252-.555-.648-1.057-.98-.51-.337-.993-.512-1.34-.512-.247 0-.563.167-1.059.58l-.195.165a11 11 0 0 1-.512.422c-.194.146-.623.458-1.158.447-.555-.01-1.293-.278-1.999-.65a10 10 0 0 1-2.378-1.764 10 10 0 0 1-1.763-2.378c-.373-.706-.64-1.444-.65-1.999-.012-.535.3-.964.446-1.158.118-.158.28-.347.422-.512l.165-.195c.413-.496.58-.812.58-1.06 0-.346-.174-.828-.512-1.339-.332-.501-.727-.889-.98-1.057l-.007-.005-.008-.005c-.146-.101-.417-.176-.805-.1M8.49 2.983c-.696-.48-1.551-.565-2.321-.414a4.28 4.28 0 0 0-2.176 1.18C2.859 4.88 2.469 6.816 2.958 8.992c.495 2.206 1.906 4.788 4.586 7.468s5.262 4.091 7.469 4.587c2.176.488 4.11.098 5.243-1.036a4.28 4.28 0 0 0 1.18-2.176c.15-.77.066-1.625-.414-2.321-.35-.52-.947-1.09-1.613-1.531-.661-.437-1.535-.844-2.442-.844-1.044 0-1.864.647-2.34 1.044-.115.095-.208.175-.29.245-.128.111-.229.197-.336.278l-.037.027a2 2 0 0 1-.228-.066 5 5 0 0 1-.759-.333 8 8 0 0 1-1.898-1.41 8 8 0 0 1-1.409-1.897 5 5 0 0 1-.333-.759 2 2 0 0 1-.066-.228l.027-.036c.08-.108.167-.208.278-.337.07-.082.15-.175.245-.29.397-.475 1.044-1.296 1.044-2.34 0-.907-.407-1.78-.844-2.442-.44-.666-1.01-1.264-1.53-1.613m5.385 11.806.005-.001z" clip-rule="evenodd"/></svg>
